Pods/ProtonCore-UIFoundations/libraries/UIFoundations/Sources/Assets.xcassets/Images/IconSet/ic-hourglass.imageset/ic-hourglass.svg

<svg width="24" height="24" viewBox="0 0 24 24" fill="none" xmlns="http://www.w3.org/2000/svg">
<path fill-rule="evenodd" clip-rule="evenodd" d="M4.5 1.5C4.08579 1.5 3.75 1.83579 3.75 2.25C3.75 2.66421 4.08579 3 4.5 3L5.25 3L5.25 4.7286C5.25 6.0209 5.25 6.66705 5.41656 7.2621C5.5641 7.7892 5.80657 8.28496 6.13206 8.72504C6.49951 9.22184 7.00955 9.61854 8.02962 10.4119L9.05309 11.208L9.05312 11.208C9.4713 11.5332 9.80652 11.794 10.0951 12C9.80651 12.2061 9.47128 12.4668 9.05309 12.792L8.02963 13.5881L8.02962 13.5881C7.00954 14.3815 6.49951 14.7782 6.13206 15.275C5.80657 15.715 5.56411 16.2108 5.41656 16.7379C5.25 17.333 5.25 17.9791 5.25 19.2714L5.25 21H4.5C4.08579 21 3.75 21.3358 3.75 21.75C3.75 22.1642 4.08579 22.5 4.5 22.5H5.25H6.75H17.25H18.75H19.5C19.9142 22.5 20.25 22.1642 20.25 21.75C20.25 21.3358 19.9142 21 19.5 21H18.75V19.2714V19.2714V19.2714C18.75 17.9791 18.75 17.333 18.5834 16.7379C18.4359 16.2108 18.1934 15.715 17.8679 15.275C17.5005 14.7782 16.9905 14.3815 15.9704 13.5881L14.9469 12.792C14.5287 12.4668 14.1935 12.2061 13.9049 12C14.1935 11.794 14.5287 11.5332 14.9469 11.208L14.9469 11.208L15.9704 10.4119C16.9905 9.61854 17.5005 9.22184 17.8679 8.72504C18.1934 8.28496 18.4359 7.7892 18.5834 7.2621C18.75 6.66705 18.75 6.02091 18.75 4.72865V4.72863V4.72862V4.7286V3L19.5 3C19.9142 3 20.25 2.66421 20.25 2.25C20.25 1.83579 19.9142 1.5 19.5 1.5H18.75H17.25H6.75H5.25H4.5ZM17.25 21V19.2714C17.25 17.8942 17.237 17.4924 17.139 17.1422C17.0406 16.7908 16.879 16.4603 16.662 16.1669C16.4457 15.8746 16.1366 15.6177 15.0495 14.7721L14.026 13.9761C12.8625 13.0712 12.6119 12.9123 12.392 12.8527C12.1353 12.7832 11.8647 12.7832 11.608 12.8527C11.3881 12.9123 11.1375 13.0712 9.974 13.9761L8.95054 14.7721C7.8634 15.6177 7.55426 15.8746 7.33804 16.1669C7.12105 16.4603 6.9594 16.7908 6.86104 17.1422C6.76303 17.4924 6.75 17.8942 6.75 19.2714L6.75 21H17.25ZM17.25 3L6.75 3L6.75 4.7286C6.75 6.10585 6.76303 6.50762 6.86104 6.85777C6.9594 7.20917 7.12105 7.53968 7.33804 7.83306C7.55426 8.1254 7.8634 8.38235 8.95054 9.2279L9.974 10.0239C11.1375 10.9289 11.3881 11.0877 11.608 11.1473C11.8647 11.2168 12.1353 11.2168 12.392 11.1473C12.6119 11.0877 12.8625 10.9289 14.026 10.0239L15.0495 9.2279C16.1366 8.38235 16.4457 8.1254 16.662 7.83306C16.879 7.53968 17.0406 7.20918 17.139 6.85777C17.237 6.50762 17.25 6.10585 17.25 4.7286V3Z" fill="#0C0C14"/>
</svg>

<svg xmlns="http://www.w3.org/2000/svg" width="24" height="24" viewBox="0 0 24 24">
  <g class="ic-hourglass">
    <path fill-rule="evenodd" d="M4.5 1.5a.75.75 0 0 0 0 1.5h.75v1.729c0 1.292 0 1.938.167 2.533a4.5 4.5 0 0 0 .715 1.463c.368.497.878.894 1.898 1.687l1.023.796c.418.325.754.586 1.042.792-.288.206-.624.467-1.042.792l-1.023.796c-1.02.794-1.53 1.19-1.898 1.687a4.5 4.5 0 0 0-.715 1.463c-.167.595-.167 1.241-.167 2.533V21H4.5a.75.75 0 0 0 0 1.5h15a.75.75 0 0 0 0-1.5h-.75v-1.729c0-1.292 0-1.938-.167-2.533a4.498 4.498 0 0 0-.715-1.463c-.367-.497-.877-.893-1.898-1.687l-1.023-.796c-.418-.325-.753-.586-1.042-.792.289-.206.624-.467 1.042-.792l1.023-.796c1.02-.793 1.53-1.19 1.898-1.687.325-.44.568-.936.715-1.463.167-.595.167-1.241.167-2.533V3h.75a.75.75 0 0 0 0-1.5h-15ZM17.25 21v-1.729c0-1.377-.013-1.779-.111-2.129a3 3 0 0 0-.477-.975c-.216-.292-.525-.55-1.612-1.395l-1.024-.796c-1.163-.905-1.414-1.064-1.634-1.123a1.5 1.5 0 0 0-.784 0c-.22.06-.47.218-1.634 1.123l-1.023.796c-1.088.846-1.397 1.103-1.613 1.395a3 3 0 0 0-.477.975c-.098.35-.111.752-.111 2.13V21h10.5Zm0-18H6.75v1.729c0 1.377.013 1.779.111 2.129a3 3 0 0 0 .477.975c.216.292.525.55 1.613 1.395l1.023.796c1.163.905 1.414 1.064 1.634 1.123.257.07.527.07.784 0 .22-.06.47-.218 1.634-1.123l1.024-.796c1.087-.846 1.396-1.103 1.612-1.395a3 3 0 0 0 .477-.975c.098-.35.111-.752.111-2.13V3Z" class="Icon"/>
  </g>
</svg>
